X:4355
T:Month of May
O:england
M:6/8
L:1/8
S:Armitt MS
N: Not clear - could also be a badly drawn bar line
K:A major
E2|A2A AGA|B2cd2e|f2e ecA|AFA BGE|A2A AGA|B2cd2e|1f2e edd|B2AG2A||2f2e e
de|e2fga:||:BcBB2c|d2e cde|a2ea2e|dcB""e3BcB B2c|d2e cde|a2e efe|
d2cB2A:||


